miniprogram/images/nearby-stores/favorite-heart.svg

<svg width="32" height="32" viewBox="0 0 32 32" fill="none" xmlns="http://www.w3.org/2000/svg">
<rect width="32" height="32" rx="16" fill="black" fill-opacity="0.3"/>
<path d="M22.3125 10.0312C24.6562 12 24.3125 15.2188 22.6562 16.9375L17.1562 22.5312C16.8438 22.8438 16.4375 23.0312 16 23.0312C15.5312 23.0312 15.125 22.8438 14.8125 22.5312L9.34375 16.9375C7.65625 15.2188 7.3125 12 9.65625 10.0312C11.4688 8.5 14.25 8.71875 16 10.5C17.7188 8.71875 20.5 8.5 22.3125 10.0312ZM21.5625 15.875C22.7188 14.7188 22.9375 12.5312 21.3438 11.1562C20.125 10.1562 18.25 10.3125 17.0938 11.5L16 12.625L14.9062 11.5C13.7188 10.3125 11.8438 10.1562 10.625 11.1875C9.03125 12.5312 9.25 14.7188 10.4062 15.875L15.875 21.4688C15.9688 21.5312 16.0312 21.5312 16.0938 21.4688L21.5625 15.875Z" fill="white"/>
</svg>

<svg xmlns="http://www.w3.org/2000/svg" width="32" height="32" fill="none" viewBox="0 0 32 32"><rect width="32" height="32" fill="#000" fill-opacity=".3" rx="16"/><path fill="#fff" d="M22.313 10.031c2.343 1.969 2 5.188.343 6.906l-5.5 5.594a1.63 1.63 0 0 1-1.156.5c-.469 0-.875-.187-1.187-.5l-5.47-5.593c-1.687-1.72-2.03-4.938.313-6.907C11.47 8.5 14.25 8.72 16 10.5c1.719-1.781 4.5-2 6.313-.469m-.75 5.844c1.156-1.156 1.375-3.344-.22-4.719-1.218-1-3.093-.844-4.25.344L16 12.625 14.906 11.5c-1.187-1.187-3.062-1.344-4.281-.312-1.594 1.343-1.375 3.53-.219 4.687l5.469 5.594c.094.062.156.062.219 0z"/></svg>
